X:1
T:Title
L:1/8
M:6/8
K:Db
V:1 treble nm="Grand Piano"
V:1
 z3[Q:1/4=140] F2 F | D2 D B,2 B, | F2 F F2 G | F6- | F3 F2 F | C2 C =A,2 A, | E2 E E2 F | E6- | %8
 E3 F2 F | D2 D B,2 B, | G2 G G2 A | G6- | G3 G2 G | G3- G2 G | A3 G3 | F6- | F3 B2 c | d2 d B2 c | %18
 d2 d B2 c | d6- | d3 A2 B | c2 c A2 B | c2 c A2 B | c6- | c3 G2 A | B2 B G2 A | B2 B G2 A | B6 | %28
 =A3 G2 G | G2 G G2 G | D2 D E2 E | F6- | F3 B2 c | d2 d B2 c | d2 d B2 c | d6- | d3 A2 B | %37
 c2 c A2 B | c2 c A2 B | c6- | c3 G2 A | B2 B G2 A | B2 B G2 A | B6 | =A3 G2 G | G2 G G2 G | %46
 F2 E D2 C | B,6- | B,3 z3 |] %49

